uiw/github.svg

<svg xmlns="http://www.w3.org/2000/svg" viewBox="0 0 20 20" height="1em" width="1em">
  <path fill="#555" d="M20,10.2504514 C20,12.4838397 19.3641493,14.4925545 18.0924479,16.2765957 C16.8207465,18.060637 15.1779514,19.2952291 13.1640625,19.9803721 C12.9296875,20.0248619 12.7582465,19.9937191 12.6497396,19.8869435 C12.5412326,19.780168 12.4869791,19.6466986 12.4869792,19.4865353 L12.4869792,16.6703305 C12.4869792,15.8072283 12.2612847,15.175473 11.8098958,14.7750648 C12.3046875,14.721677 12.749566,14.6415953 13.1445312,14.5348198 C13.5394965,14.4280442 13.9474826,14.254534 14.3684896,14.0142891 C14.7894965,13.7740441 15.141059,13.4781869 15.4231771,13.1267174 C15.7052951,12.7752479 15.9353298,12.308105 16.1132812,11.7252885 C16.2912326,11.1424721 16.3802083,10.4729005 16.3802083,9.71657375 C16.3802083,8.63992043 16.0373264,7.72343042 15.3515625,6.9671037 C15.6727431,6.15738922 15.6380208,5.24979717 15.2473958,4.24432755 C15.0043403,4.1642459 14.6527778,4.21318469 14.1927083,4.39114391 C13.7326389,4.56910313 13.3333333,4.76485827 12.9947917,4.97840935 L12.5,5.29873596 C11.6927083,5.06738897 10.859375,4.95171547 10,4.95171547 C9.14062499,4.95171547 8.30729166,5.06738897 7.5,5.29873596 C7.36111111,5.20085839 7.1766493,5.08073592 6.94661458,4.93836854 C6.71657986,4.79600116 6.35416667,4.62471541 5.85937499,4.42451127 C5.36458332,4.22430714 4.99131943,4.1642459 4.73958333,4.24432755 C4.35763889,5.24979719 4.32725695,6.15738923 4.6484375,6.9671037 C3.96267361,7.72343042 3.61979167,8.63992043 3.61979167,9.71657375 C3.61979167,10.4729005 3.70876737,11.1402476 3.88671876,11.7186151 C4.06467015,12.2969825 4.29253473,12.7641255 4.57031251,13.120044 C4.84809028,13.4759624 5.19748264,13.7740441 5.61848959,14.0142891 C6.03949654,14.254534 6.44748265,14.4280443 6.84244791,14.5348198 C7.23741317,14.6415953 7.68229165,14.721677 8.17708333,14.7750648 C7.82986111,15.0953914 7.6171875,15.5536364 7.5390625,16.1497998 C7.35677083,16.2387794 7.16145833,16.3055141 6.95312499,16.3500039 C6.74479166,16.3944937 6.49739583,16.4167386 6.21093751,16.4167386 C5.92447919,16.4167386 5.64019099,16.3210856 5.35807291,16.1297794 C5.07595483,15.9384732 4.83506942,15.6604119 4.63541668,15.2955955 C4.47048612,15.0108607 4.25998265,14.7795137 4.00390626,14.6015545 C3.74782986,14.4235953 3.53298612,14.3168197 3.35937501,14.2812279 L3.09895833,14.2411871 C2.91666667,14.2411871 2.79079861,14.2612075 2.72135418,14.3012483 C2.65190974,14.3412891 2.63020835,14.3924524 2.65625001,14.4547382 C2.68229166,14.5170239 2.72135416,14.5793096 2.77343751,14.6415953 C2.82552085,14.7038811 2.88194446,14.7572688 2.94270833,14.8017586 L3.03385416,14.8684934 C3.22482639,14.957473 3.41362848,15.1265342 3.60026042,15.3756771 C3.78689236,15.62482 3.92361111,15.8517181 4.01041667,16.0563712 L4.14062501,16.3633509 C4.25347222,16.7014734 4.44444444,16.9750857 4.71354167,17.1841878 C4.98263889,17.3932899 5.2734375,17.5267593 5.58593749,17.584596 C5.89843749,17.6424328 6.20008679,17.6735757 6.49088542,17.6780246 C6.78168404,17.6824736 7.02256946,17.6669022 7.21354167,17.6313103 L7.51302084,17.5779226 C7.51302084,17.9160451 7.51519097,18.3120044 7.51953125,18.7658004 C7.52387152,19.2195964 7.52604166,19.4598414 7.52604166,19.4865353 C7.52604166,19.6466986 7.46961805,19.780168 7.35677083,19.8869435 C7.24392362,19.9937191 7.07031251,20.024862 6.8359375,19.9803721 C4.8220486,19.2952291 3.17925347,18.060637 1.90755209,16.2765957 C0.635850712,14.4925545 0,12.4838397 0,10.2504514 C0,8.39077752 0.447048612,6.67569548 1.34114584,5.10520531 C2.23524306,3.53471514 3.4483507,2.29122504 4.98046876,1.37473503 C6.51258682,0.458245009 8.1857639,0 10,0 C11.8142361,0 13.4874132,0.458245009 15.0195312,1.37473503 C16.5516493,2.29122504 17.7647569,3.53471514 18.6588542,5.10520531 C19.5529514,6.67569548 20,8.39077752 20,10.2504514 Z"/>
</svg>

<svg xmlns="http://www.w3.org/2000/svg" viewBox="0 0 20 20" height="1em" width="1em">
  <path fill="#555" d="M20 10.25c0 2.234-.636 4.243-1.908 6.027-1.271 1.784-2.914 3.018-4.928 3.703-.234.045-.406.014-.514-.093a.539.539 0 0 1-.163-.4V16.67c0-.863-.226-1.495-.677-1.895a8.72 8.72 0 0 0 1.335-.24c.394-.107.802-.28 1.223-.52a3.66 3.66 0 0 0 1.055-.888c.282-.352.512-.819.69-1.402.178-.583.267-1.252.267-2.008 0-1.077-.343-1.994-1.028-2.75.32-.81.286-1.717-.105-2.723-.243-.08-.594-.03-1.054.147a6.94 6.94 0 0 0-1.198.587l-.495.32a9.03 9.03 0 0 0-2.5-.346 9.03 9.03 0 0 0-2.5.347 11.52 11.52 0 0 0-.553-.36c-.23-.143-.593-.314-1.088-.514-.494-.2-.868-.26-1.12-.18-.381 1.005-.412 1.912-.09 2.722-.686.756-1.03 1.673-1.03 2.75 0 .756.09 1.423.268 2.002.178.578.406 1.045.683 1.401a3.53 3.53 0 0 0 1.048.894c.421.24.83.414 1.224.52.395.108.84.188 1.335.241-.347.32-.56.779-.638 1.375a2.539 2.539 0 0 1-.586.2 3.597 3.597 0 0 1-.742.067c-.287 0-.57-.096-.853-.287-.282-.192-.523-.47-.723-.834a2.133 2.133 0 0 0-.631-.694c-.256-.178-.471-.285-.645-.32l-.26-.04c-.182 0-.308.02-.378.06-.07.04-.09.09-.065.153a.738.738 0 0 0 .117.187.961.961 0 0 0 .17.16l.09.066c.192.09.38.259.567.508.187.249.324.476.41.68l.13.307c.113.338.304.612.574.821.269.21.56.343.872.4.312.058.614.09.905.094.29.004.532-.011.723-.047l.299-.053c0 .338.002.734.007 1.188l.006.72c0 .16-.056.294-.17.4-.112.108-.286.139-.52.094-2.014-.685-3.657-1.92-4.928-3.703C.636 14.493 0 12.484 0 10.25c0-1.86.447-3.574 1.341-5.145a10.083 10.083 0 0 1 3.64-3.73A9.6 9.6 0 0 1 10 0a9.6 9.6 0 0 1 5.02 1.375 10.083 10.083 0 0 1 3.639 3.73C19.553 6.675 20 8.391 20 10.25Z"/>
</svg>
